X: 1
T: The Apple Tree
T: The Mairrit Man's Favourite
C: Carl Volti
C: from John Chambers, arr. T. Traub 8-31-2005
R: Reel
K: A
M: 4/4
L: 1/8
E |:\
"A"A2 a2 fedc | Aaga fedc | "Bm"Bcde fBBc | "D"Bcde "E"fefa | "A"A2 a2 fedc |
"A"Aaga fedc | "Bm"Bcde fBBa | "E"gefg "A" a2 :||: A2 | "A"EAAB cBAF | EAAB cBAG |
"Bm"FBBc dcBA | "E"GABc defe | "A"EAAB cBAF | EAAB cBAG | "Bm"FBBc dcBA | "E"GEFG "A"A2 :|
